X: 1
T:Dollymount Strand
M:3/4
L:1/4
Q:100
K:D
T:Intro
A/2B/2|"A"c>BA|GFE|"D"D3-|D2|
T:Verse
F|"D"FFF|FED|"A"EAA|A2B|
cBc|ABA|GED|C2E|
"D"FFF|FED|"A"EAA|A2A/2B/2|!
cBA|GEC|"D"ED2-|D2|
T:Chorus
A|"D"Add|d2d|"A"edc|"D"d2d|
"A"cAA|ABA|GED|C2E|
"D"FFF|FED|"A"EAA|A2A/2B/2|!
cBA|GEC|"D"ED2-|D2|
